svg/blobs-icons/no-decorations/boot.svg

<svg xmlns="http://www.w3.org/2000/svg" xmlns:xlink="http://www.w3.org/1999/xlink" preserveAspectRatio="xMidYMid" width="216" height="169" viewBox="0 0 216 169"><defs><style>.cls-3{fill:#2476ff}.cls-4{fill:#ededed}.cls-5{fill:#ff3a2f}.cls-6{fill:#000;opacity:.35}.cls-7{fill:#142a3b}</style></defs><g id="group-59svg"><path d="M48.672 73.552S48.672 73.445 48.672 73.445s70.481.0 70.481.0.0-59.974.0-59.974 86.051.0 86.051.0.0 130.792.0 130.792-19.998.0-19.998.0-66.053.0-66.053.0-31.151.0-31.151.0-39.33.0-39.33.0-35.227.0-35.227.0c-4.526-7.184-7.181-15.739-7.181-24.947.0-24.62 18.813-44.65 42.408-45.764z" id="path-1" class="cls-3" fill-rule="evenodd"/><path d="M16.775 120.096c-1.984.0-3.592-1.608-3.592-3.592.0-19.812 14.941-36.074 34.117-37.274C49.414 78.809 51.611 80.481 51.611 82.709v3.428S48.189 86.377 48.189 86.377C32.588 87.114 20.368 100.346 20.368 116.504c0 1.98399999999999-1.608 3.592-3.593 3.592z" id="path-2" class="cls-4" fill-rule="evenodd"/><path d="M158.232 144.263C158.542 120.158 178.155 100.707 202.336 100.707 203.304 100.707 204.251 100.79 205.204 100.851v43.412s-19.998.0-19.998.0-26.974.0-26.974.0z" id="path-3" class="cls-5" fill-rule="evenodd"/><path d="M32.996 124.67s39.33.0 39.33.0 31.151.0 31.151.0 73.89.0 73.89.0.0.0.0.0c11.045.0 12.161-1.116 12.161-12.16V35.936s-70.375-12.14-70.375-12.14 86.051.0 86.051.0.0 120.467.0 120.467-19.998.0-19.998.0-66.053.0-66.053.0-31.151.0-31.151.0-39.33.0-39.33.0-35.227.0-35.227.0c-3.634-5.767-6.032-12.429-6.849-19.593h26.4z" id="path-4" class="cls-6" fill-rule="evenodd"/><path d="M215.529 138.528s0 29.829.0 29.829-24.094.0-24.094.0.0-8.03.0-8.03-11.473.0-11.473.0.0 8.03.0 8.03-20.652.0-20.652.0.0-8.03.0-8.03-11.473.0-11.473.0.0 8.03.0 8.03-20.653.0-20.653.0.0-8.03.0-8.03-11.473.0-11.473.0.0 8.03.0 8.03-20.652.0-20.652.0.0-8.03.0-8.03-11.473.0-11.473.0.0 8.03.0 8.03-20.653.0-20.653.0.0-8.03.0-8.03-11.473.0-11.473.0.0 8.03.0 8.03-20.652.0-20.652.0.0-8.03.0-8.03-11.474.0-11.474.0.0 8.03.0 8.03-19.344.0-19.344.0.0-29.829.0-29.829 215.539.0 215.539.0z" id="path-5" class="cls-7" fill-rule="evenodd"/><path d="M199.274 168.357s-7.839.0-7.839.0.0-8.03.0-8.03 7.839.0 7.839.0.0 8.03.0 8.03z" id="path-6" class="cls-6" fill-rule="evenodd"/><path d="M135.022 168.357S127.184 168.357 127.184 168.357s0-8.03.0-8.03S135.022 160.327 135.022 160.327s0 8.03.0 8.03z" id="path-7" class="cls-6" fill-rule="evenodd"/><path d="M102.897 168.357S95.059 168.357 95.059 168.357s0-8.03.0-8.03S102.897 160.327 102.897 160.327s0 8.03.0 8.03z" id="path-8" class="cls-6" fill-rule="evenodd"/><path d="M167.148 168.357S159.31 168.357 159.31 168.357s0-8.03.0-8.03S167.148 160.327 167.148 160.327s0 8.03.0 8.03z" id="path-9" class="cls-6" fill-rule="evenodd"/><path d="M70.771 168.357s-7.838.0-7.838.0.0-8.03.0-8.03 7.838.0 7.838.0.0 8.03.0 8.03z" id="path-10" class="cls-6" fill-rule="evenodd"/><path d="M38.646 168.357s-7.838.0-7.838.0.0-8.03.0-8.03 7.838.0 7.838.0.0 8.03.0 8.03z" id="path-11" class="cls-6" fill-rule="evenodd"/><path d="M107.76 23.796s107.769.0 107.769.0.0-23.793.0-23.793-107.769.0-107.769.0.0 23.793.0 23.793z" id="path-12" class="cls-7" fill-rule="evenodd"/><path d="M189.187 23.796s26.342.0 26.342.0.0-23.793.0-23.793-26.342.0-26.342.0.0 23.793.0 23.793z" id="path-13" class="cls-6" fill-rule="evenodd"/></g></svg>

<svg xmlns="http://www.w3.org/2000/svg" xmlns:xlink="http://www.w3.org/1999/xlink" preserveAspectRatio="xMidYMid" width="216" height="169" viewBox="0 0 216 169">
  <defs>
    <style>

      .cls-3 {
        fill: #2476ff;
      }

      .cls-4 {
        fill: #ededed;
      }

      .cls-5 {
        fill: #ff3a2f;
      }

      .cls-6 {
        fill: #000000;
        opacity: 0.35;
      }

      .cls-7 {
        fill: #142a3b;
      }
    </style>
  </defs>
  <g id="group-59svg">
    <path d="M48.672,73.552 C48.672,73.552 48.672,73.445 48.672,73.445 C48.672,73.445 119.153,73.445 119.153,73.445 C119.153,73.445 119.153,13.471 119.153,13.471 C119.153,13.471 205.204,13.471 205.204,13.471 C205.204,13.471 205.204,144.263 205.204,144.263 C205.204,144.263 185.206,144.263 185.206,144.263 C185.206,144.263 119.153,144.263 119.153,144.263 C119.153,144.263 88.002,144.263 88.002,144.263 C88.002,144.263 48.672,144.263 48.672,144.263 C48.672,144.263 13.445,144.263 13.445,144.263 C8.919,137.079 6.264,128.524 6.264,119.316 C6.264,94.696 25.077,74.666 48.672,73.552 Z" id="path-1" class="cls-3" fill-rule="evenodd"/>
    <path d="M16.775,120.096 C14.791,120.096 13.183,118.488 13.183,116.504 C13.183,96.692 28.124,80.430 47.300,79.230 C49.414,78.809 51.611,80.481 51.611,82.709 C51.611,82.709 51.611,86.137 51.611,86.137 C51.611,86.137 48.189,86.377 48.189,86.377 C32.588,87.114 20.368,100.346 20.368,116.504 C20.368,118.488 18.760,120.096 16.775,120.096 Z" id="path-2" class="cls-4" fill-rule="evenodd"/>
    <path d="M158.232,144.263 C158.542,120.158 178.155,100.707 202.336,100.707 C203.304,100.707 204.251,100.790 205.204,100.851 C205.204,100.851 205.204,144.263 205.204,144.263 C205.204,144.263 185.206,144.263 185.206,144.263 C185.206,144.263 158.232,144.263 158.232,144.263 Z" id="path-3" class="cls-5" fill-rule="evenodd"/>
    <path d="M32.996,124.670 C32.996,124.670 72.326,124.670 72.326,124.670 C72.326,124.670 103.477,124.670 103.477,124.670 C103.477,124.670 177.367,124.670 177.367,124.670 C177.367,124.670 177.367,124.670 177.367,124.670 C188.412,124.670 189.528,123.554 189.528,112.510 C189.528,112.510 189.528,35.936 189.528,35.936 C189.528,35.936 119.153,23.796 119.153,23.796 C119.153,23.796 205.204,23.796 205.204,23.796 C205.204,23.796 205.204,144.263 205.204,144.263 C205.204,144.263 185.206,144.263 185.206,144.263 C185.206,144.263 119.153,144.263 119.153,144.263 C119.153,144.263 88.002,144.263 88.002,144.263 C88.002,144.263 48.672,144.263 48.672,144.263 C48.672,144.263 13.445,144.263 13.445,144.263 C9.811,138.496 7.413,131.834 6.596,124.670 C6.596,124.670 32.996,124.670 32.996,124.670 Z" id="path-4" class="cls-6" fill-rule="evenodd"/>
    <path d="M215.529,138.528 C215.529,138.528 215.529,168.357 215.529,168.357 C215.529,168.357 191.435,168.357 191.435,168.357 C191.435,168.357 191.435,160.327 191.435,160.327 C191.435,160.327 179.962,160.327 179.962,160.327 C179.962,160.327 179.962,168.357 179.962,168.357 C179.962,168.357 159.310,168.357 159.310,168.357 C159.310,168.357 159.310,160.327 159.310,160.327 C159.310,160.327 147.837,160.327 147.837,160.327 C147.837,160.327 147.837,168.357 147.837,168.357 C147.837,168.357 127.184,168.357 127.184,168.357 C127.184,168.357 127.184,160.327 127.184,160.327 C127.184,160.327 115.711,160.327 115.711,160.327 C115.711,160.327 115.711,168.357 115.711,168.357 C115.711,168.357 95.059,168.357 95.059,168.357 C95.059,168.357 95.059,160.327 95.059,160.327 C95.059,160.327 83.586,160.327 83.586,160.327 C83.586,160.327 83.586,168.357 83.586,168.357 C83.586,168.357 62.933,168.357 62.933,168.357 C62.933,168.357 62.933,160.327 62.933,160.327 C62.933,160.327 51.460,160.327 51.460,160.327 C51.460,160.327 51.460,168.357 51.460,168.357 C51.460,168.357 30.808,168.357 30.808,168.357 C30.808,168.357 30.808,160.327 30.808,160.327 C30.808,160.327 19.334,160.327 19.334,160.327 C19.334,160.327 19.334,168.357 19.334,168.357 C19.334,168.357 -0.010,168.357 -0.010,168.357 C-0.010,168.357 -0.010,138.528 -0.010,138.528 C-0.010,138.528 215.529,138.528 215.529,138.528 Z" id="path-5" class="cls-7" fill-rule="evenodd"/>
    <path d="M199.274,168.357 C199.274,168.357 191.435,168.357 191.435,168.357 C191.435,168.357 191.435,160.327 191.435,160.327 C191.435,160.327 199.274,160.327 199.274,160.327 C199.274,160.327 199.274,168.357 199.274,168.357 Z" id="path-6" class="cls-6" fill-rule="evenodd"/>
    <path d="M135.022,168.357 C135.022,168.357 127.184,168.357 127.184,168.357 C127.184,168.357 127.184,160.327 127.184,160.327 C127.184,160.327 135.022,160.327 135.022,160.327 C135.022,160.327 135.022,168.357 135.022,168.357 Z" id="path-7" class="cls-6" fill-rule="evenodd"/>
    <path d="M102.897,168.357 C102.897,168.357 95.059,168.357 95.059,168.357 C95.059,168.357 95.059,160.327 95.059,160.327 C95.059,160.327 102.897,160.327 102.897,160.327 C102.897,160.327 102.897,168.357 102.897,168.357 Z" id="path-8" class="cls-6" fill-rule="evenodd"/>
    <path d="M167.148,168.357 C167.148,168.357 159.310,168.357 159.310,168.357 C159.310,168.357 159.310,160.327 159.310,160.327 C159.310,160.327 167.148,160.327 167.148,160.327 C167.148,160.327 167.148,168.357 167.148,168.357 Z" id="path-9" class="cls-6" fill-rule="evenodd"/>
    <path d="M70.771,168.357 C70.771,168.357 62.933,168.357 62.933,168.357 C62.933,168.357 62.933,160.327 62.933,160.327 C62.933,160.327 70.771,160.327 70.771,160.327 C70.771,160.327 70.771,168.357 70.771,168.357 Z" id="path-10" class="cls-6" fill-rule="evenodd"/>
    <path d="M38.646,168.357 C38.646,168.357 30.808,168.357 30.808,168.357 C30.808,168.357 30.808,160.327 30.808,160.327 C30.808,160.327 38.646,160.327 38.646,160.327 C38.646,160.327 38.646,168.357 38.646,168.357 Z" id="path-11" class="cls-6" fill-rule="evenodd"/>
    <path d="M107.760,23.796 C107.760,23.796 215.529,23.796 215.529,23.796 C215.529,23.796 215.529,0.003 215.529,0.003 C215.529,0.003 107.760,0.003 107.760,0.003 C107.760,0.003 107.760,23.796 107.760,23.796 Z" id="path-12" class="cls-7" fill-rule="evenodd"/>
    <path d="M189.187,23.796 C189.187,23.796 215.529,23.796 215.529,23.796 C215.529,23.796 215.529,0.003 215.529,0.003 C215.529,0.003 189.187,0.003 189.187,0.003 C189.187,0.003 189.187,23.796 189.187,23.796 Z" id="path-13" class="cls-6" fill-rule="evenodd"/>
  </g>
</svg>
